packages/core/src/svgs/tokens/branded/ASSA.svg

<svg width="24" height="24" viewBox="0 0 24 24" fill="none" xmlns="http://www.w3.org/2000/svg">
<path d="M22 20.4849L13.9394 3.51514L8.71514 14.1212L4.61213 14.8303L4.12121 15.6364H12L3.86667 16.2425L3.21213 17.4545L11.3939 17.1515L2.90909 18.0606L2.60606 18.9696L10.7878 18.6666L2.30304 19.5757L2 20.4849H9.09091C10.2788 20.4849 11.0727 19.0727 11.3213 18.3637L13.9394 12L16.0363 16.2425H13.8L15.2909 20.4849H22Z" fill="#EF2525"/>
</svg>

<svg xmlns="http://www.w3.org/2000/svg" width="24" height="24" fill="none" viewBox="0 0 24 24">
    <path fill="#EF2525" d="m22 20.485-8.06-16.97-5.225 10.606-4.103.71-.49.805H12l-8.133.607-.655 1.212 8.182-.303-8.485.909-.303.909 8.182-.303-8.485.909-.303.909h7.09c1.189 0 1.983-1.412 2.231-2.121L13.94 12l2.097 4.243H13.8l1.49 4.242z"/>
</svg>
